!!!!SEGMENT: pl-wtm--r-1484_stefani-jozef--dwie-zimy-trzy-lata.krn
!!!cenid: 18xx:2225
!!!COM: Stefani, Józef
!!!COM-rismid: pe30024097
!!!CDT: 1800/04/16-1876/03/19
!!!CNT: Polish
!!!OTL: Dwie zimy, trzy lata
!!!PDT:
!!!AGN:
!!!SMS-siglum: PL-Wtm
!!!SMS-shelfmark: R 1484
!!!SMS-shelfwork: W
!!!SMS-variant:
!!!SMS-altvar:
!!!NIFC-rismid: 1001122095
!!!URL-scan: http://repozytorium.nifc.pl/skany/pl-wtm-nut--r1484
!!!ONB-nifc:
!!!OMD: Allegretto.
**kern	**kern	**dynam	**kern	**text	**text	**dynam
*part2	*part2	*part2	*part1	*part1	*part1	*part1
*staff3	*staff2	*	*staff1	*staff1	*staff1	*
*	*I"Fortepian	*	*I"Śpiew	*	*	*
*>[A,B,B]	*>[A,B,B]	*>[A,B,B]	*>[A,B,B]	*>[A,B,B]	*>[A,B,B]	*>[A,B,B]
*>A	*>A	*>A	*>A	*>A	*>A	*>A
*clefF4	*clefG2	*	*clefG2	*	*	*
*k[]	*k[]	*	*k[]	*	*	*
*M3/8	*M3/8	*	*M3/8	*	*	*
*all\right	*all\right	*	*all\right	*	*	*
=1	=1	=1	=1	=1	=1	=1
!	!LO:TUP:b:problem:klamra łukowa	!	!	!	!	!
8G 8GG\	24g/LL	f	4.r	.	.	.
.	24f#X/	.	.	.	.	.
.	24g/JJ	.	.	.	.	.
8fL 8d 8G\	8b\L	.	.	.	.	.
8fJ 8B 8G\	8dd\J	.	.	.	.	.
=2	=2	=2	=2	=2	=2	=2
*	*^	*	*	*	*	*
16.eLL 16.c\	16.cc\LL	8ryy	.	4.r	.	.	.
32fJJk 32F\	32ddJJk 32a\	.	.	.	.	.	.
8e 8E\	8ee 8g#X\	8ryy	.	.	.	.	.
8d 8F\	(16dd/LL	8f\	.	.	.	.	.
.	16a-X/JJ)	.	.	.	.	.	.
*	*v	*v	*	*	*	*	*
!!LO:LB:g=original
=3	=3	=3	=3	=3	=3	=3
8e 8c 8G\	(16g/LL	.	4.r	.	.	.
.	16cc/JJ	.	.	.	.	.
8r	8ee\L)	.	.	.	.	.
8f 8B 8G\	8dd\J	.	.	.	.	.
=4	=4	=4	=4	=4	=4	=4
8e 8c\	8cc\	.	8r	.	.	.
8c 8C\	8ccc 8ee 8cc\	.	8r	.	.	.
!!LO:PB:g=original
=||	=||	=||	=||	=||	=||	=||
*>B	*>B	*>B	*>B	*>B	*>B	*>B
!	!	!	!LO:TX:a:t=[segno]	!	!	!
8r	8r	.	8g/	1.)_Dwie	2.)_Raz	.
=5	=5	=5	=5	=5	=5	=5
!	!	!LO:DY:rj	!	!	!	!
8C 8CC/	8r	p	8cc\	źi-	wie-	.
8r	8aL 8f#X 8d#X 8c/	.	8a/	-my,	-czór,	.
8r	8aJ 8f# 8d# 8c/	.	16r	.	.	.
.	.	.	16a/	trzy	o	.
=6	=6	=6	=6	=6	=6	=6
8C 8CC/	8r	.	(16a/LL	la-	zmro-	.
.	.	.	16g/JJ)	.	.	.
8r	8gL 8e 8c/	.	8e/	-ta	-ku,	.
8r	8eJ 8c 8G/	.	16r	.	.	.
.	.	.	16e/	Już	O!	.
=7	=7	=7	=7	=7	=7	=7
8D 8DD/	8r	.	8f/	zbie-	w_ze-	.
8r	8fL 8B 8G/	.	8.f/	-gły	-szłym	.
8GG 8GGG/	8fJ 8B 8G/	.	.	.	.	.
.	.	.	16g/	ze	tu	.
=8	=8	=8	=8	=8	=8	=8
8C 8CC/	8r	.	(16e/LL	świa-	ro-	.
.	.	.	16a/JJ)	.	.	.
8r	8e 8c 8G/	.	8g/	-ta	-ku	.
8r	8r	.	16g/	W_prze-	w_ze-	.
.	.	.	16a/	-szłość	-szłym	.
!!LO:LB:g=original
=9	=9	=9	=9	=9	=9	=9
!	!	!	!	!	!	!LO:HP:a
4B 4BB\	4b 4f#X 4d#X/	.	(4b\	cie-	ma-	<
!	!	!	!	!	!	!LO:HP:a
8A 8AA\	8cc 8f# 8d#/	.	8cc\)	.	.	[ > ]]
=10	=10	=10	=10	=10	=10	=10
*	*^	*	*	*	*	*
4B 4BB\	4b 4f#X 4d#X/	4ryy	.	4b\	-mną	-ju,	.
8C/	16.a/LL	8c\	.	16.a/	W_prze-	w_ze-	.
.	32e-X/JJk	.	.	32e-X/	-szłość	-szłym	.
*	*v	*v	*	*	*	*	*
=11	=11	=11	=11	=11	=11	=11
8D\	8d 8B/	.	(16d/LL	cie-	ma-	.
.	.	.	16g/JJ	.	.	.
8r	8r	.	8b/L	.	.	.
!	!LO:SIC:v:n=4:s=8F#/	!LO:DY:rj	!	!	!	!
8D 8DD/	8f#X 8d 8A 8F/	f	8a/J)	.	.	.
=12	=12	=12	=12	=12	=12	=12
4G 4GG/	4g 4d 4B/	.	4g/	-mną,	-ju,	.
8r	8r	.	8g/	Jak	Prze-	.
.	.	p	.	.	.	.
=13	=13	=13	=13	=13	=13	=13
8D 8DD/	(16fLL 16B/	.	8f/	w_ser-	-cud-	.
.	16G/	.	.	.	.	.
8r	16f 16B/	.	8.f/	-cu	-nie	.
.	16G/	.	.	.	.	.
8GG 8GGG/	16f 16B/	.	.	.	.	.
.	16G/JJ)	.	16g/	cię	nam	.
!!LO:LB:g=original
=14	=14	=14	=14	=14	=14	=14
*	*tremolo	*	*	*	*	*
8C 8CC/	(16eLL 16c/	.	(16e/LL	no-	śpie-	.
.	16G/	.	16a/JJ)	.	.	.
8r	16e 16c/	.	8g/	-szę	-wał	.
.	16G/	.	.	.	.	.
8r	16e 16c/	.	8g/	o	Pieśń	.
.	16G/JJ)	.	.	.	.	.
=15	=15	=15	=15	=15	=15	=15
*	*	*	*^	*	*	*
8D 8DD/	(16fLL 16B/	.	16f/LL	8f/	rą-	z_ser-	.
.	16G/	.	16dd/JJ	.	.	.	.
8r	16f 16B/	.	8dd\	8.f/	-czkę	-ca	.
.	16G/	.	.	.	.	.	.
8GG 8GGG/	16f 16B/	.	16g/LL	.	twą	wy-	.
.	16G/JJ)	.	16f/JJ	16f/	.	.	.
*	*Xtremolo	*	*	*	*	*	*
*	*	*	*v	*v	*	*	*
=16	=16	=16	=16	=16	=16	=16
8C 8CC/	(16eLL 16c/	.	(16e/LL	pro-	-le-	.
.	16G/JJ	.	16a/JJ)	.	.	.
8r	8e 8c/)	.	8g/	-szę	-wał,	.
8r	8r	.	16b/	na	Sło-	.
.	.	.	16g/	da-	-wik	.
=17	=17	=17	=17	=17	=17	=17
8r	8r	.	(4dd\	-re-	w_ga-	.
8r	8r	.	.	.	.	.
!	!	!LO:DY:rj	!	!	!	!
8D 8DD/	8cc 8a 8f#X/	f	8cc\)	.	.	.
=18	=18	=18	=18	=18	=18	=18
4E 4EE/	4b 4g/	.	4b\	-mnie	-ju;	.
8C 8CC/	8a 8e-X 8c/	.	16.a\	Na	Sło-	.
.	.	.	32ee-X\	da-	-wik	.
!!LO:LB:g=original
=19	=19	=19	=19	=19	=19	=19
8D 8DD/	8g 8d 8B/	.	(16dd/LL	-re-	w_ga-	.
.	.	.	16b/	.	.	.
8r	8r	.	16g/	.	.	.
.	.	.	16e/	.	.	.
8D 8DD/	8f#X 8d 8c 8A/	.	16d/	.	.	.
.	.	.	16f#X/JJ)	.	.	.
=20	=20	=20	=20	=20	=20	=20
4G 4GG\	4g 4d 4B/	.	4g/	-mnie	-ju;	.
8r	8r	.	8g/	O	A	.
.	.	p	.	.	.	.
=21	=21	=21	=21	=21	=21	=21
8GG/	8r	.	8b/	tyś	mie-	.
8r	24fLL 24B 24G/	.	8g/	mi	-siąc	.
.	24f 24B 24G/	.	.	.	.	.
.	24fJJ 24B 24G/	.	.	.	.	.
8GG/	8f 8B 8G/	.	16r	.	.	.
.	.	.	16b\	mi-	po	.
=22	=22	=22	=22	=22	=22	=22
8C 8CC/	8r	.	8cc\	-ło-	Nie-	.
8r	24eLL 24c 24G/	.	8g/	-ści	-bie	.
.	24e 24c 24G/	.	.	.	.	.
.	24eJJ 24c 24G/	.	.	.	.	.
8C 8CC/	8e 8c 8G/	.	16.b\	Raj	Tań-	.
.	.	.	32cc\	stwo-	-czył	.
!!LO:PB:g=original
=23	=23	=23	=23	=23	=23	=23
*	*	*	*^	*	*	*
8GG/	8r	.	(8.dd/L	8.dd\L	-rzy-	sko-	.
8r	24fLL 24B 24G/	.	.	.	.	.	.
.	24f 24B 24G/	.	.	.	.	.	.
.	.	.	16b/L	16b\L	.	.	.
.	24fJJ 24B 24G/	.	.	.	.	.	.
8GG/	8f 8B 8G/	.	16gg/	16g\	.	.	.
.	.	.	16ff/JJ)	16f\JJ	.	.	.
=24	=24	=24	=24	=24	=24	=24	=24
8C 8CC/	8r	.	4ee/	4e\	-ła	-cznie;	.
8r	24eLL 24c 24G/	.	.	.	.	.	.
.	24e 24c 24G/	.	.	.	.	.	.
.	24eJJ 24c 24G/	.	.	.	.	.	.
8C 8CC/	8e 8c 8G/	.	8e/	8ryy	A	Myś-	.
*	*	*	*v	*v	*	*	*
=25	=25	=25	=25	=25	=25	=25
8D 8DD/	8r	.	8g#X/	w_pier-	-my	.
8r	24g#XLL 24e 24B/	.	8.e/	-si	się	.
.	24g# 24e 24B/	.	.	.	.	.
.	24g#JJ 24e 24B/	.	.	.	.	.
8D 8DD/	8g# 8e 8B/	.	.	.	.	.
.	.	.	16g#/	tę-	w_tej	.
=26	=26	=26	=26	=26	=26	=26
8C 8CC/	8r	.	(16b/LL	-skno-	chwi-	.
.	.	.	16a/JJ)	.	.	.
8r	24aLL 24e 24A/	.	8.e/	-ty,	-li	.
.	24a 24e 24A/	.	.	.	.	.
.	24aJJ 24e 24A/	.	.	.	.	.
8C 8CC/	8a 8e 8A/	.	.	.	.	.
.	.	.	16a/	O-	O-	.
=27	=27	=27	=27	=27	=27	=27
*	*^	*	*	*	*	*
8G#X 8GG#X/	8r	8ryy	.	8b/	-braz-	-bo-	.
8r	8b/L	8e\	.	8e/	-ku	-je	.
8G# 8GG#/	16ee/L	8b 8e\	.	(16ee\LL	mój	dzi-	.
.	16dd/JJ	.	.	16dd\JJ)	.	.	.
*	*v	*v	*	*	*	*	*
!!LO:LB:g=original
=28	=28	=28	=28	=28	=28	=28
!	!	!LO:DY:rj	!	!	!	!
8A 8AA\	8cc 8a 8e/	f	(16.cc\LL	zło-	-wi-	.
.	.	.	32dd\JJk)	.	.	.
8F 8FF;/	8dd 8a 8f;/	.	8dd;\	-ty	-li	.
8r	8r	.	16.a/	Żar	Gdzie	.
.	.	.	32a-X/	wznie-	on	.
.	.	p	.	.	.	.
=29	=29	=29	=29	=29	=29	=29
4G 4GG/	16r	.	(4g/	-ci-	spo-	.
.	16gLL 16e/	.	.	.	.	.
.	16g 16e/	.	.	.	.	.
.	16gJJ 16e/	.	.	.	.	.
8G#X 8GG#X/	16r	.	8b/)	.	.	.
.	16b 16f 16d/	.	.	.	.	.
=30	=30	=30	=30	=30	=30	=30
*	*^	*	*	*	*	*
4A 4AA\	16r	8ryy	.	4cc\	-ła.	-cznie?	.
.	16ccLL 16e 16c/	.	.	.	.	.	.
.	16cc 16e 16c/	8ryy	.	.	.	.	.
.	16ccJJ 16e 16c/	.	.	.	.	.	.
8F 8FF/	16.dd/LL	8f\	.	16.dd\	Żar	Gdzie	.
.	32a-X/JJk	.	.	32a-X/	wznie-	on	.
*	*v	*v	*	*	*	*	*
=31	=31	=31	=31	=31	=31	=31
8G 8GG/	8g 8e/	.	(16g/LL	-ci-	spo-	.
.	.	.	16cc/JJ	.	.	.
8r	8r	.	8ee\L	.	.	.
8G 8GG/	8b 8g 8f 8d/	.	8dd\J)	.	.	.
!!LO:LB:g=original
=32	=32	=32	=32	=32	=32	=32
8c 8C\	8cc 8g 8e/	.	4cc\	-ła.	-cznie?	.
!	!	!LO:DY:rj	!	!	!	!
8C 8CC/	8ccc 8ee 8cc\	f	.	.	.	.
8r	8g/	.	8r	.	.	.
=33	=33	=33	=33	=33	=33	=33
!	!LO:TX:a:Bi:t=piu Allegro.	!	!	!	!	!
8GG/	(<16f#X/LL	.	4.r	.	.	.
.	16g/	.	.	.	.	.
8fL 8d 8G\	16g#X/	.	.	.	.	.
.	16a/	.	.	.	.	.
8fJ 8d 8G\	16a#X/	.	.	.	.	.
.	16b/JJ	.	.	.	.	.
=34	=34	=34	=34	=34	=34	=34
!	!LO:TX:a:t=P:problem:koniec łuku na górze	!	!	!	!	!
8C/	16cc\LL	.	4.r	.	.	.
.	16cc#X\	.	.	.	.	.
8eL 8c 8G\	16dd\	.	.	.	.	.
.	16dd#X\	.	.	.	.	.
8eJ 8c 8G\	16ee\	.	.	.	.	.
.	16ff\JJ)	.	.	.	.	.
=35	=35	=35	=35	=35	=35	=35
8GG/	(16ff#X\LL	.	4.r	.	.	.
.	16gg\	.	.	.	.	.
8fL 8B 8G\	16aa\	.	.	.	.	.
.	16gg\)	.	.	.	.	.
8fJ 8B 8G\	(16eee\	.	.	.	.	.
.	16ddd\JJ	.	.	.	.	.
!!LO:LB:g=original
=36	=36	=36	=36	=36	=36	=36
8C/	16ccc\LL	.	4.r	.	.	.
.	16bb\	.	.	.	.	.
8eL 8c 8G\	16aa\	.	.	.	.	.
.	16gg\	.	.	.	.	.
8eJ 8c 8G\	16ff\	.	.	.	.	.
.	16ee\JJ)	.	.	.	.	.
=37	=37	=37	=37	=37	=37	=37
*^	*	*	*	*	*	*
4.F/	8F\L	(16ee\LL	.	4.r	.	.	.
.	.	16dd\	.	.	.	.	.
.	8d 8A\	16cc#X\	.	.	.	.	.
.	.	16dd\	.	.	.	.	.
.	8dJ 8A\	16ff\	.	.	.	.	.
.	.	16aa\JJ)	.	.	.	.	.
=38	=38	=38	=38	=38	=38	=38	=38
4.G/	8G\L	(16aa\LL	.	4.r	.	.	.
.	.	16gg\	.	.	.	.	.
.	8e 8c\	16ff#X\	.	.	.	.	.
.	.	16gg\	.	.	.	.	.
.	8eJ 8c\	16ee\	.	.	.	.	.
.	.	16cc\JJ)	.	.	.	.	.
=39	=39	=39	=39	=39	=39	=39	=39
4.G/	8G\L	(16a/LL	.	4.r	.	.	.
.	.	16g/	.	.	.	.	.
.	8f 8B\	16f#X/	.	.	.	.	.
.	.	16g/	.	.	.	.	.
.	8fJ 8B\	16ee/	.	.	.	.	.
.	.	16dd/JJ	.	.	.	.	.
*v	*v	*	*	*	*	*	*
=40	=40	=40	=40	=40	=40	=40
8eL 8c\	8cc\L)	.	8r	.	.	.
!	!LO:TX:t=[segno]	!	!LO:TX:t=[segno]	!	!	!
!	!	!	!	!	!LO:TX:t=P:problem:dwie dodatkowe zwrotki na karcie 0004.jpg	!
!	!LO:TX:t=P:problem:znak [segno] na kresce taktowej	!	!LO:TX:t=P:problem:znak [segno] na kresce taktowej	!	!	!
8cJ 8C\	8cccJ 8ee 8cc\	.	8r	.	.	.
==	==	==	==	==	==	==
*-	*-	*-	*-	*-	*-	*-
!!!system-decoration: <s1>{(s2,s3)}
!!!RDF**kern: < = below
!!!ENC: Katarzyna Serwa
!!!END: 2021-06-05
!!!ENC: Katarzyna Serwa
!!!END: 2021-05-20
